X:1
T:Holywell, CM
T:Holywell, CM
T:W. Joy, before 1902
T:Public Domain Courtesy of the Cyber Hymnal™
C:W. Joy, before 1902
Z:Public Domain
Z:Courtesy of the Cyber Hymnal™
%%score ( 1 2 ) ( 3 4 )
L:1/8
Q:1/4=112
M:4/4
K:Eb
V:1 treble 
V:2 treble 
V:3 bass 
V:4 bass 
V:1
 B2 | [Ge]2 (dc) [EB]3 [FA] | [EG]2 [DF]2 E2 [EG]2 x | [FB]2 [Ge]2 [Fd]2 [=Ac]2 | B6 [FB]2 | %5
 [Ee]3 [E_d] [Ec]2 [=EB]2 | [FA]2 [EG]2 [DF]2 (GA) | [EB]3 [FA] [EG]2 [DF]2 x | [B,E]6 |] %9
V:2
 B2 | x2 D2 x4 | x4 E2 x3 | x8 | B6 x2 | x8 | x6 D2 | x9 | x6 |] %9
V:3
 B,2 | [E,B,]2 [F,A,]2 [G,B,]2 [A,C]2 | B,3 z A, [C,G,]2 [C,C]2 | [D,B,]2 [E,B,]2 [F,B,]2 [F,E]2 | %4
 [B,D]6 [A,D]2 | [G,B,]3 [G,B,] [A,C]2 [C,C]2 | [F,C]2 ([G,B,][=A,C]) [B,D]2 [_A,B,]2 | %7
 [G,B,]3 [A,C] B,3 z A, | [E,G,]6 |] %9
V:4
 B,2 | x8 | B,2 B,,2 x5 | x8 | x8 | x8 | x8 | x4 B,2 B,,2 x | x6 |] %9

